X:8296
T:Jubillee Hornpipe. TLY.082
M:C
L:1/8
S:Wm.Tildesley,Swinton,Lancs.1860s.
R:Hornpipe
O:England.
A:Lancashire.
H:1860.
Z:Taz Tarry.
K:A
ed| cBAG Aaga| fedc dfed| cBAG ABcd| BAGF D2 ed|!
 cBAG Aaga| fedc dfed| cBAG AGFE| DAGB A2:|!
|:ed| caea caea| dafa dafa| caea caea| BAGF E2 ed|!
 caea caea| dafa dafa| cBAG AGFE| DAGB A2:|]
